X:5080
T:Peruvian Boy,The. HSJJ.137
O:england
M:2/4
L:1/8
Q:200
S:HSJ Jackson,Wyresdale,Lancs.1823
R:Misc.
A:Lancashire
N:Illegible dance instructions.
H:1823
K:F
A/B/|c>dcA|Bdfd|cA B/A/G/F/|EG GA/B/|c>dcA|Bdef|egcb|aff:|
|:f/g/|afaf|b>c'ba|g>agf|ecc2|dBfd|cAfA|BdcB|AFF:|]
